X:81
T:Humors of Glendart (j)
B:NFID.230a
081hu_glen
S:JMcK
L:1/8
M:6/8
R:jig
Q:320
K:D
A|BAF AFD|FEF DFA|BAF AFD|FEE E2A|
BAF AFD|FEF DFA|dcB AFE|FDD D2:|
A|def d2B|AFA AFA|def def|ede fBA|
def d2B|AFA AFA|dcB AFE|FDD D2:|

%%%

